app/assets/icons/trash.svg

<?xml version="1.0" encoding="UTF-8" standalone="no"?>
<svg width="512px" height="512px" viewBox="0 0 512 512" version="1.1" xmlns="http://www.w3.org/2000/svg" xmlns:xlink="http://www.w3.org/1999/xlink" xmlns:sketch="http://www.bohemiancoding.com/sketch/ns">
    <!-- Generator: Sketch 3.3.3 (12072) - http://www.bohemiancoding.com/sketch -->
    <title>trash</title>
    <desc>Created with Sketch.</desc>
    <defs></defs>
    <g id="Page-1" stroke="none" stroke-width="1" fill="none" fill-rule="evenodd" sketch:type="MSPage">
        <g id="trash" sketch:type="MSArtboardGroup" fill="#000000">
            <g sketch:type="MSLayerGroup" transform="translate(86.000000, 26.000000)" id="Shape">
                <path d="M298.870968,155.02 L40.9462366,155.02 C28.9731183,155.02 19.4677419,165.416 20.4731183,177.468 L42.4086022,442.06 C43.2311828,452.18 51.6397849,460 61.6935484,460 L278.123656,460 C288.177419,460 296.586022,452.18 297.408602,442.06 L319.344086,177.468 C320.349462,165.416 310.844086,155.02 298.870968,155.02 L298.870968,155.02 Z" sketch:type="MSShapeGroup"></path>
                <path d="M170,118.956 L319.709677,118.956 C332.962366,118.956 342.010753,106.628 338.263441,93.84 L329.123656,58.88 C327.021505,51.796 321.629032,47.196 314.225806,45.724 C306.822581,44.252 250.064516,39.1 236.263441,38.272 C230.048387,37.904 226.209677,32.66 225.204301,29.624 C224.198925,26.496 217.709677,12.236 213.688172,7.084 C211.860215,4.692 203.543011,0.092 169.908602,0.092 C136.274194,0.092 128.139785,4.784 126.311828,7.084 C122.290323,12.236 115.801075,26.496 114.795699,29.624 C113.790323,32.752 109.951613,37.996 103.736559,38.272 C89.9354839,39.1 33.1774194,44.252 25.7741935,45.724 C18.3709677,47.196 12.9784946,51.796 10.8763441,58.88 L1.73655914,93.84 C-2.01075269,106.628 7.03763441,118.956 20.2903226,118.956 L170,118.956 L170,118.956 Z" sketch:type="MSShapeGroup"></path>
            </g>
        </g>
    </g>
</svg>

<?xml version="1.0" encoding="utf-8"?>
<!-- Generator: Adobe Illustrator 19.2.1, SVG Export Plug-In . SVG Version: 6.00 Build 0)  -->
<svg version="1.1" id="Calque_1" xmlns:sketch="http://www.bohemiancoding.com/sketch/ns"
	 xmlns="http://www.w3.org/2000/svg" xmlns:xlink="http://www.w3.org/1999/xlink" x="0px" y="0px" width="512px" height="512px"
	 viewBox="0 0 512 512" enable-background="new 0 0 512 512" xml:space="preserve">
<title>trash</title>
<desc>Created with Sketch.</desc>
<g id="Page-1" sketch:type="MSPage">
	<g id="trash" sketch:type="MSArtboardGroup">
		<g id="Shape" transform="translate(86.000000, 26.000000)" sketch:type="MSLayerGroup">
			<path sketch:type="MSShapeGroup" d="M298.9,155H40.9c-12,0-21.5,10.4-20.5,22.4l21.9,264.6c0.8,10.1,9.2,17.9,19.3,17.9h216.4
				c10.1,0,18.5-7.8,19.3-17.9l21.9-264.6C320.3,165.4,310.8,155,298.9,155L298.9,155z"/>
			<path sketch:type="MSShapeGroup" d="M170,119h149.7c13.3,0,22.3-12.3,18.6-25.1l-9.1-35c-2.1-7.1-7.5-11.7-14.9-13.2
				s-64.2-6.6-78-7.5c-6.2-0.4-10.1-5.6-11.1-8.6c-1-3.1-7.5-17.4-11.5-22.5c-1.8-2.4-10.1-7-43.8-7s-41.8,4.7-43.6,7
				c-4,5.2-10.5,19.4-11.5,22.5s-4.8,8.4-11.1,8.6c-13.8,0.8-70.6,6-78,7.5S13,51.8,10.9,58.9l-9.1,35C-2,106.6,7,119,20.3,119H170
				L170,119z"/>
		</g>
	</g>
</g>
</svg>
